img/how-work-play.svg

<svg width="48" height="49" viewBox="0 0 48 49" fill="none" xmlns="http://www.w3.org/2000/svg">
<path d="M18.5262 1.58045C23.9717 0.310956 29.6687 1.13913 34.5843 3.91477C39.4073 6.68097 43.0961 11.2193 44.9482 16.6656C46.0519 20.2511 46.5125 24.0218 46.3063 27.7849C46.1452 30.4316 45.4676 33.0147 44.3157 35.3728C43.1637 37.7309 41.5621 39.8133 39.6114 41.4896C35.4904 45.2887 30.3025 47.563 24.8398 47.9653C21.1596 48.1772 17.4877 47.4155 14.1586 45.7495C10.8294 44.0836 7.94895 41.5664 5.77964 38.4273C3.73621 35.3067 2.4375 31.7128 1.9937 27.9506C1.5499 24.1883 1.97424 20.3689 3.23048 16.8162C4.42324 13.1645 6.43747 9.87127 9.10112 7.21808C11.7648 4.56488 14.9986 2.63057 18.5262 1.58045Z" fill="#F35A05"/>
<path d="M22.099 47.9436C19.3534 47.7419 16.6592 47.001 14.1586 45.7495C12.216 44.7773 10.426 43.5154 8.84102 42.009C8.77265 41.7822 8.74233 41.5449 8.75169 41.3071C8.76286 41.0227 8.83057 40.7437 8.95065 40.4863C9.07078 40.2292 9.2408 39.9993 9.45063 39.8101C9.66052 39.6211 9.90598 39.4768 10.1721 39.386C11.2581 38.9966 12.1371 39.5513 12.9991 40.0952C13.3893 40.3416 13.776 40.5857 14.1768 40.739H14.2011C15.5197 41.3201 16.8836 41.7891 18.2787 42.1414C21.9035 42.822 25.6265 42.7551 29.2252 41.9446C32.7639 40.833 36.0084 38.9238 38.7153 36.3604C40.6144 34.5918 42.099 32.4146 43.06 29.9888C44.8458 26.7498 45.382 22.9541 44.5648 19.3369C44.4386 18.8477 44.508 18.3279 44.758 17.8901C44.8657 17.7017 45.0033 17.5349 45.1634 17.3955C46.1112 20.7612 46.4986 24.2764 46.3063 27.7849C46.1452 30.4316 45.4676 33.0146 44.3157 35.3728C43.1638 37.731 41.5622 39.8132 39.6114 41.4895C36.3778 44.4707 32.4874 46.5129 28.3227 47.4485C26.6319 47.6433 24.9323 47.7522 23.2302 47.7747C22.8551 47.8499 22.4776 47.906 22.099 47.9436Z" fill="#D8570E"/>
<path d="M18.4127 1.0935L18.398 1.09693L18.3835 1.10123C14.7749 2.17549 11.4692 4.15353 8.74826 6.86383C6.0288 9.57262 3.97403 12.9324 2.75706 16.6552C1.47673 20.2788 1.04467 24.1733 1.49715 28.0091C1.94987 31.847 3.27482 35.5148 5.36134 38.7013L5.36121 38.7013L5.36831 38.7116C7.5842 41.918 10.5285 44.4921 13.9348 46.1966C17.3413 47.9013 21.1002 48.6814 24.8685 48.4645L24.8685 48.4646L24.8765 48.464C30.4519 48.0534 35.7429 45.7333 39.9439 41.8631C41.9443 40.1426 43.585 38.0076 44.7649 35.5923C45.9461 33.1744 46.6403 30.5269 46.8054 27.8153L46.8055 27.8123C47.0149 23.9905 46.5473 20.1607 45.4261 16.5185L45.4239 16.5115L45.4216 16.5046C43.5318 10.9475 39.7656 6.31005 34.8331 3.48103L34.8302 3.47938C29.8066 0.642794 23.9815 -0.204734 18.4127 1.0935Z" stroke="white"/>
<path d="M33.4728 24.1585L33.4874 24.2275C33.4945 24.293 33.4842 24.3594 33.4578 24.4189C33.4314 24.4783 33.39 24.5284 33.3383 24.5631C29.8887 26.9386 25.9871 29.639 22.2165 31.9502C22.1722 31.9796 22.1218 31.9966 22.0699 31.9995C22.018 32.0025 21.9663 31.9913 21.9195 31.967C21.8705 31.943 21.8276 31.9063 21.7945 31.8602C21.7615 31.8141 21.7392 31.76 21.7296 31.7024C21.1478 28.3679 20.3927 23.8416 19.6412 18.4204C19.6301 18.357 19.6352 18.2914 19.6558 18.2309C19.6765 18.1703 19.7121 18.1171 19.7586 18.0769C19.8051 18.0367 19.8608 18.0111 19.9197 18.0029C19.9785 17.9947 20.0384 18.0041 20.0926 18.0303L33.2717 23.904C33.3214 23.926 33.3655 23.9606 33.4005 24.0048C33.4354 24.0491 33.4602 24.1017 33.4728 24.1585Z" fill="white"/>
</svg>

<svg xmlns="http://www.w3.org/2000/svg" width="48" height="49" fill="none"><path fill="#F35A05" d="M18.526 1.58C23.972.311 29.67 1.14 34.584 3.915c4.823 2.766 8.512 7.304 10.364 12.75a31.893 31.893 0 0 1 1.358 11.12 20.078 20.078 0 0 1-1.99 7.588 19.122 19.122 0 0 1-4.705 6.117c-4.12 3.799-9.308 6.073-14.771 6.475-3.68.212-7.352-.55-10.681-2.216-3.33-1.665-6.21-4.183-8.38-7.322a24.337 24.337 0 0 1-3.785-10.476A24.746 24.746 0 0 1 3.23 16.816c1.193-3.651 3.207-6.945 5.871-9.598C11.765 4.565 15 2.631 18.526 1.58Z"/><path fill="#D8570E" d="M22.099 47.944a21.203 21.203 0 0 1-7.94-2.195 22.043 22.043 0 0 1-5.318-3.74 2.14 2.14 0 0 1 .61-2.199c.21-.189.455-.333.721-.424 1.086-.39 1.965.165 2.827.71.39.246.777.49 1.178.643h.024a25.737 25.737 0 0 0 4.078 1.402c3.625.681 7.348.614 10.946-.196a24.47 24.47 0 0 0 9.49-5.585 17.524 17.524 0 0 0 4.345-6.371 15.159 15.159 0 0 0 1.505-10.652 1.942 1.942 0 0 1 .598-1.942 31.912 31.912 0 0 1 1.143 10.39 20.078 20.078 0 0 1-1.99 7.588 19.117 19.117 0 0 1-4.705 6.117c-3.233 2.98-7.124 5.023-11.288 5.959-1.691.194-3.39.303-5.093.326-.375.075-.752.131-1.131.169Z"/><path stroke="#fff" d="m18.413 1.093-.015.004-.014.004c-3.61 1.074-6.915 3.053-9.636 5.763-2.72 2.709-4.774 6.068-5.99 9.791a25.246 25.246 0 0 0-1.26 11.354A24.838 24.838 0 0 0 5.36 38.701l.007.01c2.216 3.207 5.16 5.781 8.567 7.486a21.626 21.626 0 0 0 10.934 2.267h.008c5.575-.41 10.866-2.73 15.067-6.6a19.62 19.62 0 0 0 4.82-6.272 20.577 20.577 0 0 0 2.041-7.777v-.003a32.392 32.392 0 0 0-1.379-11.294l-.002-.006-.002-.007C43.532 10.948 39.766 6.31 34.833 3.48l-.003-.002C29.807.643 23.982-.205 18.413 1.093Z"/><path fill="#fff" d="m33.473 24.159.014.069a.374.374 0 0 1-.03.19.338.338 0 0 1-.119.145c-3.45 2.376-7.35 5.076-11.122 7.387a.295.295 0 0 1-.297.017.337.337 0 0 1-.125-.107.378.378 0 0 1-.064-.158A379.888 379.888 0 0 1 19.64 18.42a.384.384 0 0 1 .015-.19.355.355 0 0 1 .103-.153.3.3 0 0 1 .334-.047l13.179 5.874a.34.34 0 0 1 .129.1c.034.045.06.098.072.154Z"/></svg>
